packages/core/src/svgs/arrr.svg

<svg width="24" height="24" viewBox="0 0 24 24" fill="none" xmlns="http://www.w3.org/2000/svg">
<g clip-path="url(#clip0_31_6098)">
<path d="M0 0H24V24H0V0Z" fill="url(#paint0_linear_31_6098)"/>
<path d="M6.42847 9.00014C6.42847 8.31815 6.69938 7.6641 7.18162 7.18186C7.66386 6.69963 8.31791 6.42871 8.9999 6.42871H15.4285C16.037 6.42871 16.5942 6.643 17.0356 6.99443L13.9713 8.57157H9.85704C9.62971 8.57157 9.41169 8.66187 9.25095 8.82262C9.0902 8.98337 8.9999 9.20138 8.9999 9.42871V11.1344L6.42847 12.463V9.00014ZM6.42847 15.0559V18.4287H7.92847C8.21263 18.4287 8.48515 18.3158 8.68608 18.1149C8.88701 17.914 8.9999 17.6414 8.9999 17.3573V15.4287H15.4285C16.1105 15.4287 16.7645 15.1578 17.2467 14.6756C17.729 14.1933 17.9999 13.5393 17.9999 12.8573V9.09014L15.4285 10.4187V12.4287C15.4285 12.656 15.3382 12.8741 15.1774 13.0348C15.0167 13.1955 14.7987 13.2859 14.5713 13.2859H9.86132L6.42847 15.0559Z" fill="white"/>
</g>
<defs>
<linearGradient id="paint0_linear_31_6098" x1="1.71429" y1="1.92857" x2="21.6429" y2="24" gradientUnits="userSpaceOnUse">
<stop stop-color="#BF9B41"/>
<stop offset="1" stop-color="#E2C97E"/>
</linearGradient>
<clipPath id="clip0_31_6098">
<rect width="24" height="24" fill="white"/>
</clipPath>
</defs>
</svg>

<svg xmlns="http://www.w3.org/2000/svg" width="24" height="24" fill="none" viewBox="0 0 24 24"><g clip-path="url(#a)"><path fill="url(#b)" d="M0 0h24v24H0z"/><path fill="#fff" d="M6.428 9A2.57 2.57 0 0 1 9 6.43h6.429c.608 0 1.165.214 1.607.565L13.97 8.572H9.857A.857.857 0 0 0 9 9.429v1.705l-2.572 1.329zm0 6.056v3.373h1.5A1.07 1.07 0 0 0 9 17.357V15.43h6.429a2.57 2.57 0 0 0 2.57-2.572V9.09l-2.57 1.329v2.01a.857.857 0 0 1-.858.857h-4.71z"/></g><defs><linearGradient id="b" x1="1.714" x2="21.643" y1="1.929" y2="24" gradientUnits="userSpaceOnUse"><stop stop-color="#BF9B41"/><stop offset="1" stop-color="#E2C97E"/></linearGradient><clipPath id="a"><path fill="#fff" d="M0 0h24v24H0z"/></clipPath></defs></svg>
